public/icons/vote.svg

<svg width="80" height="80" viewBox="0 0 80 80" fill="none" xmlns="http://www.w3.org/2000/svg">
<path fill-rule="evenodd" clip-rule="evenodd" d="M36.8433 1.52771C45.5866 3.79143 49.3397 14.2875 56.1748 20.7862C64.234 28.4488 78.2148 30.6978 79.8157 42.3853C81.4484 54.3048 71.9318 64.7634 63.1613 71.7902C55.6426 77.814 46.072 76.0822 36.8433 76.8138C26.3556 77.6453 14.5394 83.8596 6.50526 76.2818C-1.692 68.5502 0.455981 54.3705 0.341382 42.3853C0.224854 30.1983 -1.85619 16.3824 5.85004 7.75665C13.5591 -0.872341 26.2128 -1.22464 36.8433 1.52771Z" fill="#F5CDE2"/>
<path d="M35.9998 40.0001L38.6665 42.6667L43.9998 37.3334M53.3332 49.3334H26.6665M30.6665 33.3334C30.6665 31.8667 31.8665 30.6667 33.3332 30.6667H46.6665C47.3737 30.6667 48.052 30.9477 48.5521 31.4478C49.0522 31.9479 49.3332 32.6262 49.3332 33.3334V49.3334H30.6665V33.3334Z" stroke="#235753" stroke-width="2" stroke-linecap="round" stroke-linejoin="round"/>
</svg>

<svg width="80" height="80" fill="none" xmlns="http://www.w3.org/2000/svg"><path fill-rule="evenodd" clip-rule="evenodd" d="M36.843 1.528c8.744 2.263 12.497 12.76 19.332 19.258 8.059 7.663 22.04 9.912 23.64 21.6 1.633 11.919-7.883 22.377-16.654 29.404-7.518 6.024-17.089 4.292-26.318 5.024-10.487.831-22.304 7.046-30.338-.532C-1.692 68.55.456 54.37.341 42.385.225 30.198-1.856 16.382 5.85 7.757c7.71-8.63 20.363-8.982 30.993-6.23z" fill="#F5CDE2"/><path d="M36 40l2.666 2.667L44 37.333m9.333 12H26.667m4-16c0-1.466 1.2-2.666 2.666-2.666h13.334a2.667 2.667 0 0 1 2.666 2.666v16H30.667v-16z" stroke="#235753" stroke-width="2" stroke-linecap="round" stroke-linejoin="round"/></svg>
